X:1
T:Alleluia, Pascha nostrum
T:Giovanni Bonaventura Matucci (1712-1777)
T:ed. Jeffrey Quick
T:Alleluia, Pascha nostrum
T:Alleluia per la resurrezione del Signore 
T:©2015
T:©2015
T:©2015
C:Giovanni Bonaventura Matucci (1712-17770
Z:©2015
%%score [ 1 2 3 ]
L:1/8
Q:1/4=160
M:none
K:C
V:1 treble-8 nm="Tenor 1" snm="T 1"
V:2 treble-8 nm="Tenor 2" snm="T 2"
V:3 bass nm="MusicXML Part"
V:1
 z16 | z24 | z16 | z16 | z8 ||[M:4/2]S e4 e6 d2 e2 f2 | e4 c8 B4 | c4 c4 F6 G2 | %8
w: |||||Al- le- * * *|* * lu-|ja, al- le- *|
 A2 B2 c6 d2 e2 c2 | d4 d4 d4 G4- | G4 e4 d4 G4- | G4 ^F4 G8 | z4 c4 _B4 B4 | A4 A4 F4 F4 | %14
w: |* lu- ja, al-|* * le- *|* lu- ja,|al- le- lu-|ja, al- le- lu-|
 G4 c8 B4 | c4 G4 F4 F4 | G16"^[Fine]" || z16 | z16 | z16 | z8 | z16 | z16 | z16 | z24 | z16 | %26
w: ja, al- *|le- * * lu-|ja,||||||||||
 z8 ||[M:4/2] e4 c8 B4 | c2 A2 c8 B2 A2 | B4 B4 G4 e4 | d4 G8 ^F4 | G8 z4 c4 | _B8 A6 G2 | %33
w: |im- mo- *|la- * * * *|* tus est Chri-||stus, im-|mo- la- *|
 F4 F4 G4 c4- | c4 B4 c4 G4 | F8 F8 | G16"^[D.S. al Fine]" |] %37
w: * tus est, im-|* mo- la- tus|est Chri-|stus,|
V:2
 z16 | z24 | z16 | z16 | z8 ||[M:4/2] G4 G6 F2 G2 A2 | G4 G4 F6 G2 | A4 A4 A4 B4 | c4 A4 G6 A2 | %9
w: |||||Al- le- * * *|* lu- ja, _|_ al- le- lu-|ja, al- le- *|
 B2 A2 B2 c2 B4 d4- | d2 G2 c8 B4 | c4 c4 _B2 c2 d2 e2 | f4 F4 F4 E4 | F2 E2 F2 G2 A2 G2 A2 B2 | %14
w: ||* lu- ja, _ _ _|_ al- le- lu-|ja, _ _ _ _ _ _ _|
 c4 G4 F2 G2 A2 F2 | G4 c8 B4 | c16 || z16 | z16 | z16 | z8 | z16 | z16 | z16 | z24 | z16 | z8 || %27
w: _ al- le- * * *|* * lu-|ja.|||||||||||
[M:4/2] G4 G4 F6 G2 | A4 A4 A8 | z4 d6 G2 c4- | c4 B4 c4 c4 | _B2 c2 d2 e2 f4 F4- | %32
w: im- mo- la- *|* tus est,|im- mo- la-|* * tus est|Chri- * * * stus, im-|
 F4 E4 F2 E2 F2 G2 | A2 G2 A2 B2 c4 G4 | F2 G2 A2 F2 G4 c4- | c4 B2 A2 B8 | c16 |] %37
w: * mo- la- * * *|* * * * tus est|Chri- * * * * *||stus.|
V:3
 C,8 C,8 | C,8 D,8 F,8 | D,8 F,8 | E,8 G,8 | G,8 ||[M:4/2] C,8 C,8 | C,8 D,8 | F,8 D,8 | F,8 E,8 | %9
w: Al- le-|lu- * *|||ja,|al- le-|lu- *|||
 G,8 G,8 | E,8 G,8 | A,8 G,8 | F,8 G,8 | F,8 D,8 | C,8 D,8 | E,8 D,8 | C,16 || F,8 E,8 | G,8 A,8 | %19
w: * ja,||||||||Pas- cha|_ nos-|
 G,8 A,8 | E,8 | G,8 G,8 | G,8 C8 | B,8 G,8 | A,8 G,8 F,8 | D,8 C,8 | C,8 ||[M:4/2] C,8 D,8 | %28
w: |trum|im- mo-|* la-|||tus _|est|Chri- *|
 F,8 D,8 | G,8 E,8 | G,8 A,8 | G,8 F,8 | G,8 F,8 | D,8 E,8 | D,8 E,8 | D,16 | C,16 |] %37
w: |stus. *||||||||

